source/icons/phone.svg

<svg xmlns="http://www.w3.org/2000/svg" width="20" height="20" fill="none">
  <g fill="#000" clip-path="url(#a)" transform="translate(0 -.29)">
    <path d="M17.9 9.75H9.4v1.2h8.5l-2.1 2.11.9.9 3.1-3.1a.75.75 0 0 0 0-.9l-3.1-3.12-.9.9ZM8.1 19.79v-6.22a.65.65 0 0 0-.6-.6H3.1a1.23 1.23 0 0 0 1.2 1.2h2.5v5.02H3.1a1.78 1.78 0 0 1-1.9-1.71V3.43a1.78 1.78 0 0 1 1.7-1.8h3.9v5.01H4.4a1.22 1.22 0 0 0-1.2 1.2h4.4a.65.65 0 0 0 .6-.6V.92a.86.86 0 0 0-.7-.6H3.1A3 3 0 0 0 0 3.23v13.95a2.9 2.9 0 0 0 2.9 3.1h4.6a.5.5 0 0 0 .6-.5z"/>
  </g>
  <defs>
    <clipPath id="a">
      <path fill="#fff" d="M0 0h20v20.07H0Z" transform="translate(0 .32)"/>
    </clipPath>
  </defs>
</svg>

<?xml version="1.0" encoding="UTF-8" standalone="no"?>
<svg
   xmlns:dc="http://purl.org/dc/elements/1.1/"
   xmlns:cc="http://creativecommons.org/ns#"
   xmlns:rdf="http://www.w3.org/1999/02/22-rdf-syntax-ns#"
   xmlns:svg="http://www.w3.org/2000/svg"
   xmlns="http://www.w3.org/2000/svg"
   xmlns:sodipodi="http://sodipodi.sourceforge.net/DTD/sodipodi-0.dtd"
   xmlns:inkscape="http://www.inkscape.org/namespaces/inkscape"
   width="20"
   height="20"
   version="1.1"
   id="svg11"
   sodipodi:docname="phone.svg"
   style="fill:none"
   inkscape:version="0.92.4 (5da689c313, 2019-01-14)">
  <metadata
     id="metadata15">
    <rdf:RDF>
      <cc:Work
         rdf:about="">
        <dc:format>image/svg+xml</dc:format>
        <dc:type
           rdf:resource="http://purl.org/dc/dcmitype/StillImage" />
        <dc:title></dc:title>
      </cc:Work>
    </rdf:RDF>
  </metadata>
  <sodipodi:namedview
     pagecolor="#ffffff"
     bordercolor="#666666"
     borderopacity="1"
     objecttolerance="10"
     gridtolerance="10"
     guidetolerance="10"
     inkscape:pageopacity="0"
     inkscape:pageshadow="2"
     inkscape:window-width="958"
     inkscape:window-height="1018"
     id="namedview13"
     showgrid="false"
     inkscape:zoom="11.238095"
     inkscape:cx="10"
     inkscape:cy="10.5"
     inkscape:window-x="-7"
     inkscape:window-y="0"
     inkscape:window-maximized="0"
     inkscape:current-layer="svg11" />
  <g
     clip-path="url(#a)"
     id="g4"
     style="fill:#000000"
     transform="translate(0,-0.29012298)">
    <path
       d="M 17.9,9.75 H 9.4 v 1.2 h 8.5 l -2.1,2.11 0.9,0.9 3.1,-3.1 a 0.75,0.75 0 0 0 0,-0.9 L 16.7,6.84 15.8,7.74 Z M 8.1,19.79 V 13.57 A 0.65,0.65 0 0 0 7.5,12.97 H 3.1 a 1.23,1.23 0 0 0 1.2,1.2 h 2.5 v 5.02 H 3.1 A 1.78,1.78 0 0 1 1.2,17.48 V 3.43 A 1.78,1.78 0 0 1 2.9,1.63 H 6.8 V 6.64 H 4.4 A 1.22,1.22 0 0 0 3.2,7.84 H 7.6 A 0.65,0.65 0 0 0 8.2,7.24 V 0.92 A 0.86,0.86 0 0 0 7.5,0.32 H 3.1 A 3,3 0 0 0 0,3.23 v 13.95 a 2.9,2.9 0 0 0 2.9,3.1 h 4.6 a 0.5,0.5 0 0 0 0.6,-0.5 z"
       id="path2"
       inkscape:connector-curvature="0" />
  </g>
  <defs
     id="defs9">
    <clipPath
       id="a">
      <path
         d="M 0,0 H 20 V 20.07 H 0 Z"
         transform="translate(0,0.32)"
         id="path6"
         inkscape:connector-curvature="0"
         style="fill:#ffffff" />
    </clipPath>
  </defs>
</svg>
